packages/foundations/assets/icons/functional/images/transportation/electric_scooter_16.svg

<svg width="16" height="16" viewBox="0 0 16 16" fill="none" xmlns="http://www.w3.org/2000/svg">
<g clip-path="url(#clip0_187_977)">
<path fill-rule="evenodd" clip-rule="evenodd" d="M12.1687 1.73437L10.5165 2.23345C9.9617 2.40105 9.61137 2.93813 9.66968 3.50411L10.5976 8.16718C9.83225 8.66095 9.17638 9.26462 8.75971 9.82018C8.3969 10.3039 8.16537 10.8669 8.06215 11.4996L5.43349 11.4998C5.12483 10.7936 4.42014 10.3002 3.60003 10.3002C2.49568 10.3002 1.60003 11.1956 1.60003 12.3002C1.60003 13.4048 2.49568 14.3002 3.60003 14.3002C4.42 14.3002 5.1246 13.8069 5.43334 13.1009L8.7997 13.1002C9.24153 13.1002 9.5997 12.742 9.5997 12.3002C9.5997 11.6656 9.74909 11.1677 10.0397 10.7802C10.2585 10.4885 10.5586 10.1911 10.9408 9.89063L11.1171 10.7659C10.6788 11.1328 10.4 11.6839 10.4 12.3002C10.4 13.4048 11.2957 14.3002 12.4 14.3002C13.5047 14.3002 14.4 13.4049 14.4 12.3002C14.4 11.2833 13.6414 10.4439 12.6592 10.3168L11.3272 3.66019L12.6314 3.26601C13.0241 3.14737 13.3076 2.67862 13.1658 2.26885C13.0241 1.85908 12.6085 1.60329 12.1687 1.73437ZM12.4 11.9002C12.6211 11.9002 12.8 12.0791 12.8 12.3002C12.8 12.5212 12.6211 12.7002 12.4 12.7002C12.1792 12.7002 12 12.521 12 12.3002C12 12.0794 12.1792 11.9002 12.4 11.9002ZM3.60003 11.9002C3.82108 11.9002 4.00002 12.0791 4.00002 12.3002C4.00002 12.5212 3.82108 12.7002 3.60003 12.7002C3.37924 12.7002 3.20002 12.521 3.20002 12.3002C3.20002 12.0794 3.37924 11.9002 3.60003 11.9002ZM6.15533 8.92461C5.23514 8.03621 4.19794 7.72744 3.07135 7.91051C2.63525 7.98137 2.33916 8.39235 2.41003 8.82846C2.48089 9.26457 2.89187 9.56066 3.32798 9.48979C3.96455 9.38635 4.49294 9.54365 5.04401 10.0757C5.36187 10.3826 5.86832 10.3737 6.17521 10.0558C6.48209 9.73795 6.47319 9.23149 6.15533 8.92461Z" fill="#1A1C1F"/>
</g>
<defs>
<clipPath id="clip0_187_977">
<rect width="16" height="16" fill="white"/>
</clipPath>
</defs>
</svg>

<svg xmlns="http://www.w3.org/2000/svg" width="16" height="16" fill="none"><g clip-path="url(#a)"><path fill="#1A1C1F" fill-rule="evenodd" d="m12.169 1.734-1.652.5a1.2 1.2 0 0 0-.847 1.27l.928 4.663c-.766.494-1.422 1.098-1.838 1.653a3.8 3.8 0 0 0-.698 1.68H5.433a2 2 0 1 0 0 1.6H8.8a.8.8 0 0 0 .8-.8c0-.634.15-1.132.44-1.52q.328-.437.9-.89l.177.876a2 2 0 1 0 1.542-.45L11.327 3.66l1.304-.394c.393-.119.677-.587.535-.997s-.558-.666-.997-.535M12.4 11.9a.4.4 0 1 1 0 .8.4.4 0 0 1 0-.8m-8.8 0a.4.4 0 1 1 0 .8.4.4 0 0 1 0-.8m2.555-2.975c-.92-.889-1.957-1.198-3.084-1.014a.8.8 0 1 0 .257 1.579c.637-.104 1.165.054 1.716.586a.8.8 0 1 0 1.111-1.151" clip-rule="evenodd"/></g><defs><clipPath id="a"><path fill="#fff" d="M0 0h16v16H0z"/></clipPath></defs></svg>
